img/twitter-ico.svg

<?xml version="1.0" ?><svg height="50px" version="1.1" viewBox="0 0 50 50" width="50px" xmlns="http://www.w3.org/2000/svg" xmlns:sketch="http://www.bohemiancoding.com/sketch/ns" xmlns:xlink="http://www.w3.org/1999/xlink"><title/><defs/><g fill="none" fill-rule="evenodd" id="Page-1" stroke="none" stroke-width="1"><g fill="#000000" id="Twitter"><path d="M25,50 C38.8071194,50 50,38.8071194 50,25 C50,11.1928806 38.8071194,0 25,0 C11.1928806,0 0,11.1928806 0,25 C0,38.8071194 11.1928806,50 25,50 Z M25,47 C37.1502651,47 47,37.1502651 47,25 C47,12.8497349 37.1502651,3 25,3 C12.8497349,3 3,12.8497349 3,25 C3,37.1502651 12.8497349,47 25,47 Z M24.6822554,20.5542975 L24.729944,21.3761011 L23.9351333,21.2754721 C21.0420225,20.8897275 18.5145246,19.5815504 16.3685358,17.3844837 L15.3193857,16.2943361 L15.0491501,17.0993681 C14.4768864,18.8939188 14.8424993,20.7890985 16.0347153,22.0637326 C16.6705638,22.7681357 16.5274979,22.8687647 15.4306592,22.4494772 C15.0491501,22.3153051 14.7153296,22.2146761 14.6835371,22.2649907 C14.5722637,22.3823912 14.9537728,23.9085978 15.2558008,24.5123719 C15.6691024,25.350947 16.5116017,26.1727505 17.433582,26.6591241 L18.2124965,27.0448686 L17.2905161,27.0616401 C16.4003282,27.0616401 16.3685358,27.0784116 16.4639131,27.4306131 C16.7818374,28.5207608 18.0376382,29.6779944 19.436505,30.1811394 L20.4220701,30.533341 L19.5636746,31.070029 C18.2919776,31.8415181 16.7977335,32.2775772 15.3034895,32.3111202 C14.5881599,32.3278916 14,32.3949776 14,32.4452922 C14,32.6130071 15.939338,33.5522113 17.0679692,33.9211843 C20.4538626,35.0113319 24.4756046,34.5417298 27.4958851,32.6800932 C29.6418739,31.3551445 31.7878628,28.7220188 32.7893242,26.1727505 C33.3297954,24.8142589 33.8702667,22.3320767 33.8702667,21.1413 C33.8702667,20.369811 33.9179553,20.269182 34.8081432,19.3467494 C35.3327183,18.8100613 35.8255009,18.2230588 35.9208782,18.0553437 C36.0798403,17.7366852 36.0639442,17.7366852 35.2532373,18.0218007 C33.9020591,18.5249458 33.7113045,18.4578598 34.3789455,17.7031422 C34.8717281,17.1664541 35.459888,16.1937071 35.459888,15.9085915 C35.459888,15.858277 35.2214448,15.9421346 34.9512092,16.093078 C34.6650773,16.2607931 34.0292288,16.5123656 33.5523424,16.6633091 L32.6939469,16.9484246 L31.9150324,16.394965 C31.4858346,16.093078 30.8817786,15.757648 30.5638543,15.657019 C29.7531474,15.422218 28.5132428,15.455761 27.7820169,15.724105 C25.7949903,16.4788226 24.5391894,18.4243168 24.6822554,20.5542975 C24.6822554,20.5542975 24.5391894,18.4243168 24.6822554,20.5542975 Z M24.6822554,20.5542975" id="Oval-1"/></g></g></svg>

<svg height="50" width="50" xmlns="http://www.w3.org/2000/svg"><path d="M25 50c13.807 0 25-11.193 25-25S38.807 0 25 0 0 11.193 0 25s11.193 25 25 25zm0-3c12.15 0 22-9.85 22-22S37.15 3 25 3 3 12.85 3 25s9.85 22 22 22zm-.318-26.446l.048.822-.795-.1c-2.893-.386-5.42-1.694-7.566-3.892l-1.05-1.09-.27.805c-.572 1.795-.207 3.69.986 4.965.636.704.492.805-.604.385-.382-.134-.716-.234-.747-.184-.112.117.27 1.644.572 2.247.413.839 1.256 1.66 2.178 2.147l.778.386-.921.017c-.89 0-.922.016-.827.369.318 1.09 1.574 2.247 2.973 2.75l.985.352-.858.537a8.66 8.66 0 0 1-4.26 1.241c-.716.017-1.304.084-1.304.134 0 .168 1.94 1.107 3.068 1.476 3.386 1.09 7.408.62 10.428-1.24 2.146-1.326 4.292-3.959 5.293-6.508.54-1.359 1.081-3.84 1.081-5.032 0-.771.048-.872.938-1.794.525-.537 1.018-1.124 1.113-1.292.159-.318.143-.318-.668-.033-1.35.503-1.542.436-.874-.319.493-.537 1.08-1.51 1.08-1.794 0-.05-.238.033-.508.184-.286.168-.922.42-1.399.57l-.858.285-.779-.553c-.43-.302-1.033-.637-1.351-.738-.81-.235-2.05-.201-2.782.067a4.806 4.806 0 0 0-3.1 4.83s-.143-2.13 0 0zm0 0" fill="#000" fill-rule="evenodd"/></svg>
